icons/square/48/disk-usage-analyzer.svg

<svg viewBox="0 0 48 48"><defs><linearGradient id="linearGradient3764" x1="1" x2="47" gradientUnits="userSpaceOnUse" gradientTransform="translate(-48.000001,0.00221467)"><stop stop-color="#d2d2d2" stop-opacity="1"/><stop offset="1" stop-color="#dcdcdc" stop-opacity="1"/></linearGradient><clipPath id="clipPath-715646798"><g transform="translate(0,-1004.3622)"><rect rx="4" y="1005.36" x="1" height="46" width="46" fill="#1890d0"/></g></clipPath><clipPath id="clipPath-728436652"><g transform="translate(0,-1004.3622)"><rect rx="4" y="1005.36" x="1" height="46" width="46" fill="#1890d0"/></g></clipPath><clipPath id="clip1"><path d="m 9 9 l 30 0 l 0 27 l -30 0 m 0 -27"/></clipPath><clipPath id="clip2"><path d="m 24 9 c -8.285 0 -15 6.715 -15 15 c 0 8.281 6.715 15 15 15 c 8.285 0 15 -6.719 15 -15 c 0 -8.285 -6.715 -15 -15 -15 m 0 9.641 c 2.949 0 5.348 2.371 5.355 5.324 l 0 0.035 c 0 2.957 -2.398 5.355 -5.355 5.355 c -2.957 0 -5.359 -2.398 -5.359 -5.355 c 0 -2.961 2.402 -5.359 5.359 -5.359 m 0 0"/></clipPath><clipPath id="clip3"><path d="m 9 24 l 24 0 l 0 15 l -24 0 m 0 -15"/></clipPath><clipPath id="clip5"><path d="m 24 22 l 15 0 l 0 17 l -15 0 m 0 -17"/></clipPath><clipPath id="clip1"><path d="m 9 9 l 30 0 l 0 27 l -30 0 m 0 -27"/></clipPath><clipPath id="clip2"><path d="m 24 9 c -8.285 0 -15 6.715 -15 15 c 0 8.281 6.715 15 15 15 c 8.285 0 15 -6.719 15 -15 c 0 -8.285 -6.715 -15 -15 -15 m 0 9.641 c 2.949 0 5.348 2.371 5.355 5.324 l 0 0.035 c 0 2.957 -2.398 5.355 -5.355 5.355 c -2.957 0 -5.359 -2.398 -5.359 -5.355 c 0 -2.961 2.402 -5.359 5.359 -5.359 m 0 0"/></clipPath><clipPath id="clip3"><path d="m 9 24 l 24 0 l 0 15 l -24 0 m 0 -15"/></clipPath><clipPath id="clip5"><path d="m 24 22 l 15 0 l 0 17 l -15 0 m 0 -17"/></clipPath></defs><g><path d="m 1 43 l 0 0.25 c 0 2.216 1.784 4 4 4 l 38 0 c 2.216 0 4 -1.784 4 -4 l 0 -0.25 c 0 2.216 -1.784 4 -4 4 l -38 0 c -2.216 0 -4 -1.784 -4 -4 z m 0 0.5 l 0 0.5 c 0 2.216 1.784 4 4 4 l 38 0 c 2.216 0 4 -1.784 4 -4 l 0 -0.5 c 0 2.216 -1.784 4 -4 4 l -38 0 c -2.216 0 -4 -1.784 -4 -4 z" opacity="0.02"/><path d="m 1 43.25 l 0 0.25 c 0 2.216 1.784 4 4 4 l 38 0 c 2.216 0 4 -1.784 4 -4 l 0 -0.25 c 0 2.216 -1.784 4 -4 4 l -38 0 c -2.216 0 -4 -1.784 -4 -4 z" opacity="0.05"/><path d="m 1 43 l 0 0.25 c 0 2.216 1.784 4 4 4 l 38 0 c 2.216 0 4 -1.784 4 -4 l 0 -0.25 c 0 2.216 -1.784 4 -4 4 l -38 0 c -2.216 0 -4 -1.784 -4 -4 z" opacity="0.1"/></g><g><rect width="46" height="46" x="-47" y="1" rx="4" transform="matrix(0,-1,1,0,0,0)" fill="url(#linearGradient3764)" fill-opacity="1"/></g><g><g clip-path="url(#clipPath-715646798)"><g opacity="0.1"><!-- color: #dcdcdc --><g><g clip-path="url(#clip1)"><g clip-path="url(#clip2)"><path d="m 24 24 l -18.215 11.785 l 0 -33.21 l 39.645 0 l 0 21.43 m -21.43 0" stroke="none" fill-rule="nonzero" fill-opacity="1" fill="#000"/></g></g><g clip-path="url(#clip3)"><g clip-path="url(#clip2)"><path d="m 5.785 41.14 l 0 -5.355 l 18.215 -11.785 l 8.57 15 l 0 2.141 m -26.785 0" stroke="none" fill-rule="nonzero" fill-opacity="1" fill="#000"/></g></g><g clip-path="url(#clip5)"><g clip-path="url(#clip2)"><path d="m 24 41.14 l 21.43 0 l 0 -18.215 l -21.43 0 m 0 18.215" stroke="none" fill-rule="nonzero" fill-opacity="1" fill="#000"/></g></g></g></g></g></g><g><g clip-path="url(#clipPath-728436652)"><g transform="translate(0,-1)"><!-- color: #dcdcdc --><g><g clip-path="url(#clip1)"><g clip-path="url(#clip2)"><path d="m 24 24 l -18.215 11.785 l 0 -33.21 l 39.645 0 l 0 21.43 m -21.43 0" fill="#e38c53" stroke="none" fill-rule="nonzero" fill-opacity="1"/></g></g><g clip-path="url(#clip3)"><g clip-path="url(#clip2)"><path d="m 5.785 41.14 l 0 -5.355 l 18.215 -11.785 l 8.57 15 l 0 2.141 m -26.785 0" fill="#a8cf36" stroke="none" fill-rule="nonzero" fill-opacity="1"/></g></g><g clip-path="url(#clip5)"><g clip-path="url(#clip2)"><path d="m 24 41.14 l 21.43 0 l 0 -18.215 l -21.43 0 m 0 18.215" fill="#59a3c8" stroke="none" fill-rule="nonzero" fill-opacity="1"/></g></g></g></g></g></g><g><g transform="translate(0,-1004.3622)"><path d="m 1 1043.36 0 4 c 0 2.216 1.784 4 4 4 l 38 0 c 2.216 0 4 -1.784 4 -4 l 0 -4 c 0 2.216 -1.784 4 -4 4 l -38 0 c -2.216 0 -4 -1.784 -4 -4 z" opacity="0.1"/></g></g></svg>

<svg viewBox="0 0 48 48">
  <defs>
    <linearGradient id="a" x1="1" x2="47" gradientUnits="userSpaceOnUse" gradientTransform="translate(-48 .002)">
      <stop stop-color="#d2d2d2"/>
      <stop offset="1" stop-color="#dcdcdc"/>
    </linearGradient>
    <clipPath id="b"/>
    <clipPath id="g"/>
    <clipPath id="c">
      <path d="M9 9h30v27H9M9 9"/>
    </clipPath>
    <clipPath id="d">
      <path d="M24 9C15.715 9 9 15.715 9 24c0 8.281 6.715 15 15 15s15-6.719 15-15c0-8.285-6.715-15-15-15m0 9.641c2.949 0 5.348 2.371 5.355 5.324V24A5.356 5.356 0 0 1 24 29.355 5.359 5.359 0 0 1 18.641 24 5.36 5.36 0 0 1 24 18.641m0 0"/>
    </clipPath>
    <clipPath id="e">
      <path d="M9 24h24v15H9m0-15"/>
    </clipPath>
    <clipPath id="f">
      <path d="M24 22h15v17H24m0-17"/>
    </clipPath>
  </defs>
  <path d="M1 43v.25c0 2.216 1.784 4 4 4h38c2.216 0 4-1.784 4-4V43c0 2.216-1.784 4-4 4H5c-2.216 0-4-1.784-4-4zm0 .5v.5c0 2.216 1.784 4 4 4h38c2.216 0 4-1.784 4-4v-.5c0 2.216-1.784 4-4 4H5c-2.216 0-4-1.784-4-4z" opacity=".02"/>
  <path d="M1 43.25v.25c0 2.216 1.784 4 4 4h38c2.216 0 4-1.784 4-4v-.25c0 2.216-1.784 4-4 4H5c-2.216 0-4-1.784-4-4z" opacity=".05"/>
  <path d="M1 43v.25c0 2.216 1.784 4 4 4h38c2.216 0 4-1.784 4-4V43c0 2.216-1.784 4-4 4H5c-2.216 0-4-1.784-4-4z" opacity=".1"/>
  <rect width="46" height="46" x="-47" y="1" rx="4" transform="rotate(-90)" fill="url(#a)"/>
  <g opacity=".1" clip-path="url(#b)">
    <g clip-path="url(#c)">
      <g clip-path="url(#d)">
        <path d="M24 24L5.785 35.785V2.575H45.43v21.43m-21.43 0"/>
      </g>
    </g>
    <g clip-path="url(#e)">
      <g clip-path="url(#d)">
        <path d="M5.785 41.14v-5.355L24 24l8.57 15v2.141m-26.785 0"/>
      </g>
    </g>
    <g clip-path="url(#f)">
      <g clip-path="url(#d)">
        <path d="M24 41.14h21.43V22.925H24m0 18.215"/>
      </g>
    </g>
  </g>
  <g>
    <g clip-path="url(#g)">
      <g clip-path="url(#c)" transform="translate(0 -1)">
        <g clip-path="url(#d)">
          <path d="M24 24L5.785 35.785V2.575H45.43v21.43m-21.43 0" fill="#e38c53"/>
        </g>
      </g>
      <g clip-path="url(#e)" transform="translate(0 -1)">
        <g clip-path="url(#d)">
          <path d="M5.785 41.14v-5.355L24 24l8.57 15v2.141m-26.785 0" fill="#a8cf36"/>
        </g>
      </g>
      <g clip-path="url(#f)" transform="translate(0 -1)">
        <g clip-path="url(#d)">
          <path d="M24 41.14h21.43V22.925H24m0 18.215" fill="#59a3c8"/>
        </g>
      </g>
    </g>
  </g>
  <g>
    <path d="M1 38.998v4c0 2.216 1.784 4 4 4h38c2.216 0 4-1.784 4-4v-4c0 2.216-1.784 4-4 4H5c-2.216 0-4-1.784-4-4z" opacity=".1"/>
  </g>
</svg>
